material/.icons/material/calendar-account.svg

<svg xmlns="http://www.w3.org/2000/svg" viewBox="0 0 24 24"><path d="M12 10c2 0 3 2.42 1.59 3.84-1.42 1.42-3.84.41-3.84-1.59C9.75 11 10.75 10 12 10m4.5 9h-9v-1.12c0-1.25 2-2.25 4.5-2.25s4.5 1 4.5 2.25M19 20H5V9h14m-3-7v2H8V2H6v2H5a2 2 0 00-2 2v14a2 2 0 002 2h14a2 2 0 002-2V6a2 2 0 00-2-2h-1V2h-2z"/></svg>

<?xml version="1.0" encoding="UTF-8"?><!DOCTYPE svg PUBLIC "-//W3C//DTD SVG 1.1//EN" "http://www.w3.org/Graphics/SVG/1.1/DTD/svg11.dtd"><svg xmlns="http://www.w3.org/2000/svg" xmlns:xlink="http://www.w3.org/1999/xlink" version="1.1" id="mdi-calendar-account" width="24" height="24" viewBox="0 0 24 24"><path d="M12,10C14,10 15,12.42 13.59,13.84C12.17,15.26 9.75,14.25 9.75,12.25C9.75,11 10.75,10 12,10M16.5,19H7.5V17.88C7.5,16.63 9.5,15.63 12,15.63C14.5,15.63 16.5,16.63 16.5,17.88M19,20H5V9H19M16,2V4H8V2H6V4H5A2,2 0 0,0 3,6V20A2,2 0 0,0 5,22H19A2,2 0 0,0 21,20V6A2,2 0 0,0 19,4H18V2H16Z" /></svg>
